X:1
T:the LAMMY
L:1/8
M:4/4
I:linebreak $
K:Emin
V:1 treble 
V:1
 E | E>F G>A (Bc) d2 | (AB) (AG) FD D2 | E>F G>A (Bc) d2 |$ (Bg) (f>e) B<e e |] B | %6
w: O|whare hae ye been a' * day,|my * boy * Tam- * my?|Whare hae ye been a' * day,|my * boy * Tam- * my?|I've|
 e>f g>e d>c B2 | G>B d>B A>F D2 |$ e>g f>g e2 B2 | G>A B>A G E2 |] %10
w: been by burn and flow- 'ry brae,|Mea- dow green, and moun- tain grey,|Court- ing o' this young thing,|just come frae her mam- my.|
